X:251
T:O'Banion's Wake
C:David Grisman
N:TablEdited by Will Patton
L:1/8
Q:1/4=177
M:3/4
K:Bb
z6 | z2 d2 c2 |: "Gm"Bc BA G2 | D2 _G2 =G2 | A2 B2 d2 | ed B2 d2 | "F"cd cB A2 | 
F2 G2 A2 | B2 c2 _d2 | "D7"d2 _d2 c2 | "Gm"Bc BA G2 | D2 _G2 =G2 | A2 B2 d2 | 
ed B2 d2 | cd cB A2 | D2 F2 _G2 | "Gm"G2 B2 D2 |1 G2 d2 c2 :|2 G2 GA Bd | "Cm"g6 | 
"Cm(maj 7)"z4 ab | "Cm7"a4 ba | "Cm6"g4 z_g | "Gm"g6 | z2 _g=g dc | BA BA G2 | 
z2 GA Bd | g6 | "Cm(maj 7)"z2 a2 b2 | "Cm7"c'4 bc' | "Cm6"g6 | "Eb7"ze ga b2 | 
z2 g2 e2 | "D7"a2 _g2 d2 | D2 d2 c2 :|3 G6 | (3"D7"_ggg d2 (3BBB | "Gm"G6 | 
 

